shader_type canvas_item;

void vertex() {
	// Called for every vertex the material is visible on.	
	
}

void fragment() {
	// Called for every pixel the material is visible on.
	vec4 silluette = vec4(vec3(0.0, 1.0, 0.0), COLOR.a);
	COLOR = silluette;
}

//void light() {
	// Called for every pixel for every light affecting the CanvasItem.
	// Uncomment to replace the default light processing function with this one.
//}
